(G-CODE GENERATED BY FLATCAM v8.994 - www.flatcam.org - Version Date: 2020/11/7)

(Name: OtherDrawing.gbr_cutout_cnc)
(Type: G-code from Geometry)
(Units: MM)

(Created on Sunday, 07 March 2021 at 00:08)

(This preprocessor is the default preprocessor used by FlatCAM.)
(It is made to work with MACH3 compatible motion controllers.)

(TOOL DIAMETER: 0.8 mm)
(Feedrate_XY: 120.0 mm/min)
(Feedrate_Z: 100.0 mm/min)
(Feedrate rapids 1500.0 mm/min)

(Z_Cut: -1.8 mm)
(Z_Move: 2.0 mm)
(Z Start: None mm)
(Z End: 40.0 mm)
(X,Y End: 0.0000, 0.0000 mm)
(Steps per circle: 64)
(Preprocessor Geometry: default)

(X range:    5.8738 ...   89.3762  mm)
(Y range:    4.2863 ...   67.7862  mm)

(Spindle Speed: 0.0 RPM)
G21
G90
G94

G01 F120.00

M5
G00 Z15.0000
G00 X0.0000 Y0.0000
T1
M6    
(MSG, Change to Tool Dia = 0.8000)
M0
G00 Z15.0000

M03
G01 F120.00
G00 X5.8738 Y17.4913
G01 F100.00
G01 Z-1.8000
G01 F120.00
G01 X5.8738 Y11.4300
G01 X5.8746 Y11.4029
G01 X5.8785 Y11.3638
G01 X5.8796 Y11.3564
G01 X5.8872 Y11.3179
G01 X5.8890 Y11.3107
G01 X5.9004 Y11.2731
G01 X5.9029 Y11.2661
G01 X5.9180 Y11.2298
G01 X5.9212 Y11.2230
G01 X5.9397 Y11.1884
G01 X5.9435 Y11.1820
G01 X5.9653 Y11.1494
G01 X5.9698 Y11.1434
G01 X5.9947 Y11.1130
G01 X5.9997 Y11.1075
G01 X6.0275 Y11.0797
G01 X6.0330 Y11.0747
G01 X6.0634 Y11.0498
G01 X6.0694 Y11.0453
G01 X6.1020 Y11.0235
G01 X6.1084 Y11.0197
G01 X6.1430 Y11.0012
G01 X6.1498 Y10.9980
G01 X6.1861 Y10.9829
G01 X6.1931 Y10.9804
G01 X6.2307 Y10.9690
G01 X6.2379 Y10.9672
G01 X6.2764 Y10.9596
G01 X6.2838 Y10.9585
G01 X6.3229 Y10.9546
G01 X6.3304 Y10.9542
G01 X6.3500 Y10.9538
G01 X12.8588 Y10.9538
G01 X12.8588 Y5.7150
G01 X12.8596 Y5.6879
G01 X12.8635 Y5.6488
G01 X12.8646 Y5.6414
G01 X12.8722 Y5.6029
G01 X12.8740 Y5.5957
G01 X12.8854 Y5.5581
G01 X12.8879 Y5.5511
G01 X12.9030 Y5.5148
G01 X12.9062 Y5.5080
G01 X12.9247 Y5.4734
G01 X12.9285 Y5.4670
G01 X12.9503 Y5.4344
G01 X12.9548 Y5.4284
G01 X12.9797 Y5.3980
G01 X12.9982 Y5.3782
G01 X13.9507 Y4.4257
G01 X13.9705 Y4.4072
G01 X14.0009 Y4.3823
G01 X14.0069 Y4.3778
G01 X14.0395 Y4.3560
G01 X14.0459 Y4.3522
G01 X14.0805 Y4.3337
G01 X14.0873 Y4.3305
G01 X14.1236 Y4.3154
G01 X14.1306 Y4.3129
G01 X14.1682 Y4.3015
G01 X14.1754 Y4.2997
G01 X14.2139 Y4.2921
G01 X14.2213 Y4.2910
G01 X14.2604 Y4.2871
G01 X14.2875 Y4.2863
G01 X23.3650 Y4.2863
G00 Z2.0000
G00 X5.8738 Y20.2913
G01 F100.00
G01 Z-1.8000
G01 F120.00
G01 X5.8738 Y29.2100
G01 X5.8746 Y29.2371
G01 X5.8785 Y29.2762
G01 X5.8796 Y29.2836
G01 X5.8872 Y29.3221
G01 X5.8890 Y29.3293
G01 X5.9004 Y29.3669
G01 X5.9029 Y29.3739
G01 X5.9180 Y29.4102
G01 X5.9212 Y29.4170
G01 X5.9397 Y29.4516
G01 X5.9435 Y29.4580
G01 X5.9653 Y29.4906
G01 X5.9698 Y29.4966
G01 X5.9947 Y29.5270
G01 X5.9997 Y29.5325
G01 X6.0275 Y29.5603
G01 X6.0330 Y29.5653
G01 X6.0634 Y29.5902
G01 X6.0694 Y29.5947
G01 X6.1020 Y29.6165
G01 X6.1084 Y29.6203
G01 X6.1430 Y29.6388
G01 X6.1498 Y29.6420
G01 X6.1861 Y29.6571
G01 X6.1931 Y29.6596
G01 X6.2307 Y29.6710
G01 X6.2379 Y29.6728
G01 X6.2764 Y29.6804
G01 X6.2838 Y29.6815
G01 X6.3229 Y29.6854
G01 X6.3500 Y29.6862
G01 X15.0427 Y29.6862
G01 X18.7132 Y33.3568
G01 X18.7330 Y33.3753
G01 X18.7634 Y33.4002
G01 X18.7694 Y33.4047
G01 X18.8020 Y33.4265
G01 X18.8084 Y33.4303
G01 X18.8430 Y33.4488
G01 X18.8498 Y33.4520
G01 X18.8861 Y33.4671
G01 X18.8931 Y33.4696
G01 X18.9307 Y33.4810
G01 X18.9379 Y33.4828
G01 X18.9764 Y33.4904
G01 X18.9838 Y33.4915
G01 X19.0229 Y33.4954
G01 X19.0500 Y33.4962
G01 X23.3650 Y33.4962
G00 Z2.0000
G00 X26.1650 Y33.4962
G01 F100.00
G01 Z-1.8000
G01 F120.00
G01 X43.1800 Y33.4962
G01 X43.2071 Y33.4954
G01 X43.2462 Y33.4915
G01 X43.2536 Y33.4904
G01 X43.2921 Y33.4828
G01 X43.2993 Y33.4810
G01 X43.3369 Y33.4696
G01 X43.3439 Y33.4671
G01 X43.3802 Y33.4520
G01 X43.3870 Y33.4488
G01 X43.4216 Y33.4303
G01 X43.4280 Y33.4265
G01 X43.4606 Y33.4047
G01 X43.4666 Y33.4002
G01 X43.4970 Y33.3753
G01 X43.5025 Y33.3703
G01 X43.5303 Y33.3425
G01 X43.5353 Y33.3370
G01 X43.5602 Y33.3066
G01 X43.5647 Y33.3006
G01 X43.5865 Y33.2680
G01 X43.5903 Y33.2616
G01 X43.6088 Y33.2270
G01 X43.6120 Y33.2202
G01 X43.6271 Y33.1839
G01 X43.6296 Y33.1769
G01 X43.6410 Y33.1393
G01 X43.6428 Y33.1321
G01 X43.6504 Y33.0936
G01 X43.6515 Y33.0862
G01 X43.6554 Y33.0471
G01 X43.6562 Y33.0200
G01 X43.6562 Y20.2913
G00 Z2.0000
G00 X43.6562 Y17.4913
G01 F100.00
G01 Z-1.8000
G01 F120.00
G01 X43.6562 Y6.3500
G01 X43.6554 Y6.3229
G01 X43.6515 Y6.2838
G01 X43.6504 Y6.2764
G01 X43.6428 Y6.2379
G01 X43.6410 Y6.2307
G01 X43.6296 Y6.1931
G01 X43.6271 Y6.1861
G01 X43.6120 Y6.1498
G01 X43.6088 Y6.1430
G01 X43.5903 Y6.1084
G01 X43.5865 Y6.1020
G01 X43.5647 Y6.0694
G01 X43.5602 Y6.0634
G01 X43.5353 Y6.0330
G01 X43.5303 Y6.0275
G01 X43.5168 Y6.0132
G01 X41.9293 Y4.4257
G01 X41.9095 Y4.4072
G01 X41.8791 Y4.3823
G01 X41.8731 Y4.3778
G01 X41.8405 Y4.3560
G01 X41.8341 Y4.3522
G01 X41.7995 Y4.3337
G01 X41.7927 Y4.3305
G01 X41.7564 Y4.3154
G01 X41.7494 Y4.3129
G01 X41.7118 Y4.3015
G01 X41.7046 Y4.2997
G01 X41.6661 Y4.2921
G01 X41.6587 Y4.2910
G01 X41.6196 Y4.2871
G01 X41.5925 Y4.2863
G01 X26.1650 Y4.2863
G00 Z2.0000
G00 X51.5938 Y17.4913
G01 F100.00
G01 Z-1.8000
G01 F120.00
G01 X51.5938 Y11.4300
G01 X51.5946 Y11.4029
G01 X51.5985 Y11.3638
G01 X51.5996 Y11.3564
G01 X51.6072 Y11.3179
G01 X51.6090 Y11.3107
G01 X51.6204 Y11.2731
G01 X51.6229 Y11.2661
G01 X51.6380 Y11.2298
G01 X51.6412 Y11.2230
G01 X51.6597 Y11.1884
G01 X51.6635 Y11.1820
G01 X51.6853 Y11.1494
G01 X51.6898 Y11.1434
G01 X51.7147 Y11.1130
G01 X51.7197 Y11.1075
G01 X51.7475 Y11.0797
G01 X51.7530 Y11.0747
G01 X51.7834 Y11.0498
G01 X51.7894 Y11.0453
G01 X51.8220 Y11.0235
G01 X51.8284 Y11.0197
G01 X51.8630 Y11.0012
G01 X51.8698 Y10.9980
G01 X51.9061 Y10.9829
G01 X51.9131 Y10.9804
G01 X51.9507 Y10.9690
G01 X51.9579 Y10.9672
G01 X51.9964 Y10.9596
G01 X52.0038 Y10.9585
G01 X52.0429 Y10.9546
G01 X52.0504 Y10.9542
G01 X52.0700 Y10.9538
G01 X58.5788 Y10.9538
G01 X58.5788 Y5.7150
G01 X58.5796 Y5.6879
G01 X58.5835 Y5.6488
G01 X58.5846 Y5.6414
G01 X58.5922 Y5.6029
G01 X58.5940 Y5.5957
G01 X58.6054 Y5.5581
G01 X58.6079 Y5.5511
G01 X58.6230 Y5.5148
G01 X58.6262 Y5.5080
G01 X58.6447 Y5.4734
G01 X58.6485 Y5.4670
G01 X58.6703 Y5.4344
G01 X58.6748 Y5.4284
G01 X58.6997 Y5.3980
G01 X58.7182 Y5.3782
G01 X59.6707 Y4.4257
G01 X59.6905 Y4.4072
G01 X59.7209 Y4.3823
G01 X59.7269 Y4.3778
G01 X59.7595 Y4.3560
G01 X59.7659 Y4.3522
G01 X59.8005 Y4.3337
G01 X59.8073 Y4.3305
G01 X59.8436 Y4.3154
G01 X59.8506 Y4.3129
G01 X59.8882 Y4.3015
G01 X59.8954 Y4.2997
G01 X59.9339 Y4.2921
G01 X59.9413 Y4.2910
G01 X59.9804 Y4.2871
G01 X60.0075 Y4.2863
G01 X69.0850 Y4.2863
G00 Z2.0000
G00 X51.5938 Y20.2913
G01 F100.00
G01 Z-1.8000
G01 F120.00
G01 X51.5938 Y29.2100
G01 X51.5946 Y29.2371
G01 X51.5985 Y29.2762
G01 X51.5996 Y29.2836
G01 X51.6072 Y29.3221
G01 X51.6090 Y29.3293
G01 X51.6204 Y29.3669
G01 X51.6229 Y29.3739
G01 X51.6380 Y29.4102
G01 X51.6412 Y29.4170
G01 X51.6597 Y29.4516
G01 X51.6635 Y29.4580
G01 X51.6853 Y29.4906
G01 X51.6898 Y29.4966
G01 X51.7147 Y29.5270
G01 X51.7197 Y29.5325
G01 X51.7475 Y29.5603
G01 X51.7530 Y29.5653
G01 X51.7834 Y29.5902
G01 X51.7894 Y29.5947
G01 X51.8220 Y29.6165
G01 X51.8284 Y29.6203
G01 X51.8630 Y29.6388
G01 X51.8698 Y29.6420
G01 X51.9061 Y29.6571
G01 X51.9131 Y29.6596
G01 X51.9507 Y29.6710
G01 X51.9579 Y29.6728
G01 X51.9964 Y29.6804
G01 X52.0038 Y29.6815
G01 X52.0429 Y29.6854
G01 X52.0700 Y29.6862
G01 X60.7627 Y29.6862
G01 X64.4332 Y33.3568
G01 X64.4530 Y33.3753
G01 X64.4834 Y33.4002
G01 X64.4894 Y33.4047
G01 X64.5220 Y33.4265
G01 X64.5284 Y33.4303
G01 X64.5630 Y33.4488
G01 X64.5698 Y33.4520
G01 X64.6061 Y33.4671
G01 X64.6131 Y33.4696
G01 X64.6507 Y33.4810
G01 X64.6579 Y33.4828
G01 X64.6964 Y33.4904
G01 X64.7038 Y33.4915
G01 X64.7429 Y33.4954
G01 X64.7700 Y33.4962
G01 X69.0850 Y33.4962
G00 Z2.0000
G00 X71.8850 Y33.4962
G01 F100.00
G01 Z-1.8000
G01 F120.00
G01 X88.9000 Y33.4962
G01 X88.9271 Y33.4954
G01 X88.9662 Y33.4915
G01 X88.9736 Y33.4904
G01 X89.0121 Y33.4828
G01 X89.0193 Y33.4810
G01 X89.0569 Y33.4696
G01 X89.0639 Y33.4671
G01 X89.1002 Y33.4520
G01 X89.1070 Y33.4488
G01 X89.1416 Y33.4303
G01 X89.1480 Y33.4265
G01 X89.1806 Y33.4047
G01 X89.1866 Y33.4002
G01 X89.2170 Y33.3753
G01 X89.2225 Y33.3703
G01 X89.2503 Y33.3425
G01 X89.2553 Y33.3370
G01 X89.2802 Y33.3066
G01 X89.2847 Y33.3006
G01 X89.3065 Y33.2680
G01 X89.3103 Y33.2616
G01 X89.3288 Y33.2270
G01 X89.3320 Y33.2202
G01 X89.3471 Y33.1839
G01 X89.3496 Y33.1769
G01 X89.3610 Y33.1393
G01 X89.3628 Y33.1321
G01 X89.3704 Y33.0936
G01 X89.3715 Y33.0862
G01 X89.3754 Y33.0471
G01 X89.3762 Y33.0200
G01 X89.3762 Y20.2913
G00 Z2.0000
G00 X89.3762 Y17.4913
G01 F100.00
G01 Z-1.8000
G01 F120.00
G01 X89.3762 Y6.3500
G01 X89.3754 Y6.3229
G01 X89.3715 Y6.2838
G01 X89.3704 Y6.2764
G01 X89.3628 Y6.2379
G01 X89.3610 Y6.2307
G01 X89.3496 Y6.1931
G01 X89.3471 Y6.1861
G01 X89.3320 Y6.1498
G01 X89.3288 Y6.1430
G01 X89.3103 Y6.1084
G01 X89.3065 Y6.1020
G01 X89.2847 Y6.0694
G01 X89.2802 Y6.0634
G01 X89.2553 Y6.0330
G01 X89.2503 Y6.0275
G01 X89.2368 Y6.0132
G01 X87.6493 Y4.4257
G01 X87.6295 Y4.4072
G01 X87.5991 Y4.3823
G01 X87.5931 Y4.3778
G01 X87.5605 Y4.3560
G01 X87.5541 Y4.3522
G01 X87.5195 Y4.3337
G01 X87.5127 Y4.3305
G01 X87.4764 Y4.3154
G01 X87.4694 Y4.3129
G01 X87.4318 Y4.3015
G01 X87.4246 Y4.2997
G01 X87.3861 Y4.2921
G01 X87.3787 Y4.2910
G01 X87.3396 Y4.2871
G01 X87.3125 Y4.2863
G01 X71.8850 Y4.2863
G00 Z2.0000
G00 X71.8850 Y38.5763
G01 F100.00
G01 Z-1.8000
G01 F120.00
G01 X87.3125 Y38.5763
G01 X87.3396 Y38.5771
G01 X87.3787 Y38.5810
G01 X87.3861 Y38.5821
G01 X87.4246 Y38.5897
G01 X87.4318 Y38.5915
G01 X87.4694 Y38.6029
G01 X87.4764 Y38.6054
G01 X87.5127 Y38.6205
G01 X87.5195 Y38.6237
G01 X87.5541 Y38.6422
G01 X87.5605 Y38.6460
G01 X87.5931 Y38.6678
G01 X87.5991 Y38.6723
G01 X87.6295 Y38.6972
G01 X87.6493 Y38.7157
G01 X89.2368 Y40.3032
G01 X89.2503 Y40.3175
G01 X89.2553 Y40.3230
G01 X89.2802 Y40.3534
G01 X89.2847 Y40.3594
G01 X89.3065 Y40.3920
G01 X89.3103 Y40.3984
G01 X89.3288 Y40.4330
G01 X89.3320 Y40.4398
G01 X89.3471 Y40.4761
G01 X89.3496 Y40.4831
G01 X89.3610 Y40.5207
G01 X89.3628 Y40.5279
G01 X89.3704 Y40.5664
G01 X89.3715 Y40.5738
G01 X89.3754 Y40.6129
G01 X89.3762 Y40.6400
G01 X89.3762 Y51.7813
G00 Z2.0000
G00 X69.0850 Y38.5763
G01 F100.00
G01 Z-1.8000
G01 F120.00
G01 X60.0075 Y38.5763
G01 X59.9804 Y38.5771
G01 X59.9413 Y38.5810
G01 X59.9339 Y38.5821
G01 X59.8954 Y38.5897
G01 X59.8882 Y38.5915
G01 X59.8506 Y38.6029
G01 X59.8436 Y38.6054
G01 X59.8073 Y38.6205
G01 X59.8005 Y38.6237
G01 X59.7659 Y38.6422
G01 X59.7595 Y38.6460
G01 X59.7269 Y38.6678
G01 X59.7209 Y38.6723
G01 X59.6905 Y38.6972
G01 X59.6707 Y38.7157
G01 X58.7182 Y39.6682
G01 X58.6997 Y39.6880
G01 X58.6748 Y39.7184
G01 X58.6703 Y39.7244
G01 X58.6485 Y39.7570
G01 X58.6447 Y39.7634
G01 X58.6262 Y39.7980
G01 X58.6230 Y39.8048
G01 X58.6079 Y39.8411
G01 X58.6054 Y39.8481
G01 X58.5940 Y39.8857
G01 X58.5922 Y39.8929
G01 X58.5846 Y39.9314
G01 X58.5835 Y39.9388
G01 X58.5796 Y39.9779
G01 X58.5788 Y40.0050
G01 X58.5788 Y45.2438
G01 X52.0700 Y45.2438
G01 X52.0504 Y45.2442
G01 X52.0429 Y45.2446
G01 X52.0038 Y45.2485
G01 X51.9964 Y45.2496
G01 X51.9579 Y45.2572
G01 X51.9507 Y45.2590
G01 X51.9131 Y45.2704
G01 X51.9061 Y45.2729
G01 X51.8698 Y45.2880
G01 X51.8630 Y45.2912
G01 X51.8284 Y45.3097
G01 X51.8220 Y45.3135
G01 X51.7894 Y45.3353
G01 X51.7834 Y45.3398
G01 X51.7530 Y45.3647
G01 X51.7475 Y45.3697
G01 X51.7197 Y45.3975
G01 X51.7147 Y45.4030
G01 X51.6898 Y45.4334
G01 X51.6853 Y45.4394
G01 X51.6635 Y45.4720
G01 X51.6597 Y45.4784
G01 X51.6412 Y45.5130
G01 X51.6380 Y45.5198
G01 X51.6229 Y45.5561
G01 X51.6204 Y45.5631
G01 X51.6090 Y45.6007
G01 X51.6072 Y45.6079
G01 X51.5996 Y45.6464
G01 X51.5985 Y45.6538
G01 X51.5946 Y45.6929
G01 X51.5938 Y45.7200
G01 X51.5938 Y51.7813
G00 Z2.0000
G00 X51.5938 Y54.5813
G01 F100.00
G01 Z-1.8000
G01 F120.00
G01 X51.5938 Y63.5000
G01 X51.5946 Y63.5271
G01 X51.5985 Y63.5662
G01 X51.5996 Y63.5736
G01 X51.6072 Y63.6121
G01 X51.6090 Y63.6193
G01 X51.6204 Y63.6569
G01 X51.6229 Y63.6639
G01 X51.6380 Y63.7002
G01 X51.6412 Y63.7070
G01 X51.6597 Y63.7416
G01 X51.6635 Y63.7480
G01 X51.6853 Y63.7806
G01 X51.6898 Y63.7866
G01 X51.7147 Y63.8170
G01 X51.7197 Y63.8225
G01 X51.7475 Y63.8503
G01 X51.7530 Y63.8553
G01 X51.7834 Y63.8802
G01 X51.7894 Y63.8847
G01 X51.8220 Y63.9065
G01 X51.8284 Y63.9103
G01 X51.8630 Y63.9288
G01 X51.8698 Y63.9320
G01 X51.9061 Y63.9471
G01 X51.9131 Y63.9496
G01 X51.9507 Y63.9610
G01 X51.9579 Y63.9628
G01 X51.9964 Y63.9704
G01 X52.0038 Y63.9715
G01 X52.0429 Y63.9754
G01 X52.0700 Y63.9762
G01 X60.7627 Y63.9762
G01 X64.4332 Y67.6468
G01 X64.4530 Y67.6653
G01 X64.4834 Y67.6902
G01 X64.4894 Y67.6947
G01 X64.5220 Y67.7165
G01 X64.5284 Y67.7203
G01 X64.5630 Y67.7388
G01 X64.5698 Y67.7420
G01 X64.6061 Y67.7571
G01 X64.6131 Y67.7596
G01 X64.6507 Y67.7710
G01 X64.6579 Y67.7728
G01 X64.6964 Y67.7804
G01 X64.7038 Y67.7815
G01 X64.7429 Y67.7854
G01 X64.7700 Y67.7862
G01 X69.0850 Y67.7862
G00 Z2.0000
G00 X71.8850 Y67.7862
G01 F100.00
G01 Z-1.8000
G01 F120.00
G01 X88.9000 Y67.7862
G01 X88.9271 Y67.7854
G01 X88.9662 Y67.7815
G01 X88.9736 Y67.7804
G01 X89.0121 Y67.7728
G01 X89.0193 Y67.7710
G01 X89.0569 Y67.7596
G01 X89.0639 Y67.7571
G01 X89.1002 Y67.7420
G01 X89.1070 Y67.7388
G01 X89.1416 Y67.7203
G01 X89.1480 Y67.7165
G01 X89.1806 Y67.6947
G01 X89.1866 Y67.6902
G01 X89.2170 Y67.6653
G01 X89.2225 Y67.6603
G01 X89.2503 Y67.6325
G01 X89.2553 Y67.6270
G01 X89.2802 Y67.5966
G01 X89.2847 Y67.5906
G01 X89.3065 Y67.5580
G01 X89.3103 Y67.5516
G01 X89.3288 Y67.5170
G01 X89.3320 Y67.5102
G01 X89.3471 Y67.4739
G01 X89.3496 Y67.4669
G01 X89.3610 Y67.4293
G01 X89.3628 Y67.4221
G01 X89.3704 Y67.3836
G01 X89.3715 Y67.3762
G01 X89.3754 Y67.3371
G01 X89.3762 Y67.3100
G01 X89.3762 Y54.5813
G00 Z2.0000
G00 X43.6562 Y54.5813
G01 F100.00
G01 Z-1.8000
G01 F120.00
G01 X43.6562 Y67.3100
G01 X43.6554 Y67.3371
G01 X43.6515 Y67.3762
G01 X43.6504 Y67.3836
G01 X43.6428 Y67.4221
G01 X43.6410 Y67.4293
G01 X43.6296 Y67.4669
G01 X43.6271 Y67.4739
G01 X43.6120 Y67.5102
G01 X43.6088 Y67.5170
G01 X43.5903 Y67.5516
G01 X43.5865 Y67.5580
G01 X43.5647 Y67.5906
G01 X43.5602 Y67.5966
G01 X43.5353 Y67.6270
G01 X43.5303 Y67.6325
G01 X43.5025 Y67.6603
G01 X43.4970 Y67.6653
G01 X43.4666 Y67.6902
G01 X43.4606 Y67.6947
G01 X43.4280 Y67.7165
G01 X43.4216 Y67.7203
G01 X43.3870 Y67.7388
G01 X43.3802 Y67.7420
G01 X43.3439 Y67.7571
G01 X43.3369 Y67.7596
G01 X43.2993 Y67.7710
G01 X43.2921 Y67.7728
G01 X43.2536 Y67.7804
G01 X43.2462 Y67.7815
G01 X43.2071 Y67.7854
G01 X43.1800 Y67.7862
G01 X26.1650 Y67.7862
G00 Z2.0000
G00 X43.6562 Y51.7813
G01 F100.00
G01 Z-1.8000
G01 F120.00
G01 X43.6562 Y40.6400
G01 X43.6554 Y40.6129
G01 X43.6515 Y40.5738
G01 X43.6504 Y40.5664
G01 X43.6428 Y40.5279
G01 X43.6410 Y40.5207
G01 X43.6296 Y40.4831
G01 X43.6271 Y40.4761
G01 X43.6120 Y40.4398
G01 X43.6088 Y40.4330
G01 X43.5903 Y40.3984
G01 X43.5865 Y40.3920
G01 X43.5647 Y40.3594
G01 X43.5602 Y40.3534
G01 X43.5353 Y40.3230
G01 X43.5303 Y40.3175
G01 X43.5168 Y40.3032
G01 X41.9293 Y38.7157
G01 X41.9095 Y38.6972
G01 X41.8791 Y38.6723
G01 X41.8731 Y38.6678
G01 X41.8405 Y38.6460
G01 X41.8341 Y38.6422
G01 X41.7995 Y38.6237
G01 X41.7927 Y38.6205
G01 X41.7564 Y38.6054
G01 X41.7494 Y38.6029
G01 X41.7118 Y38.5915
G01 X41.7046 Y38.5897
G01 X41.6661 Y38.5821
G01 X41.6587 Y38.5810
G01 X41.6196 Y38.5771
G01 X41.5925 Y38.5763
G01 X26.1650 Y38.5763
G00 Z2.0000
G00 X23.3650 Y38.5763
G01 F100.00
G01 Z-1.8000
G01 F120.00
G01 X14.2875 Y38.5763
G01 X14.2604 Y38.5771
G01 X14.2213 Y38.5810
G01 X14.2139 Y38.5821
G01 X14.1754 Y38.5897
G01 X14.1682 Y38.5915
G01 X14.1306 Y38.6029
G01 X14.1236 Y38.6054
G01 X14.0873 Y38.6205
G01 X14.0805 Y38.6237
G01 X14.0459 Y38.6422
G01 X14.0395 Y38.6460
G01 X14.0069 Y38.6678
G01 X14.0009 Y38.6723
G01 X13.9705 Y38.6972
G01 X13.9507 Y38.7157
G01 X12.9982 Y39.6682
G01 X12.9797 Y39.6880
G01 X12.9548 Y39.7184
G01 X12.9503 Y39.7244
G01 X12.9285 Y39.7570
G01 X12.9247 Y39.7634
G01 X12.9062 Y39.7980
G01 X12.9030 Y39.8048
G01 X12.8879 Y39.8411
G01 X12.8854 Y39.8481
G01 X12.8740 Y39.8857
G01 X12.8722 Y39.8929
G01 X12.8646 Y39.9314
G01 X12.8635 Y39.9388
G01 X12.8596 Y39.9779
G01 X12.8588 Y40.0050
G01 X12.8588 Y45.2438
G01 X6.3500 Y45.2438
G01 X6.3304 Y45.2442
G01 X6.3229 Y45.2446
G01 X6.2838 Y45.2485
G01 X6.2764 Y45.2496
G01 X6.2379 Y45.2572
G01 X6.2307 Y45.2590
G01 X6.1931 Y45.2704
G01 X6.1861 Y45.2729
G01 X6.1498 Y45.2880
G01 X6.1430 Y45.2912
G01 X6.1084 Y45.3097
G01 X6.1020 Y45.3135
G01 X6.0694 Y45.3353
G01 X6.0634 Y45.3398
G01 X6.0330 Y45.3647
G01 X6.0275 Y45.3697
G01 X5.9997 Y45.3975
G01 X5.9947 Y45.4030
G01 X5.9698 Y45.4334
G01 X5.9653 Y45.4394
G01 X5.9435 Y45.4720
G01 X5.9397 Y45.4784
G01 X5.9212 Y45.5130
G01 X5.9180 Y45.5198
G01 X5.9029 Y45.5561
G01 X5.9004 Y45.5631
G01 X5.8890 Y45.6007
G01 X5.8872 Y45.6079
G01 X5.8796 Y45.6464
G01 X5.8785 Y45.6538
G01 X5.8746 Y45.6929
G01 X5.8738 Y45.7200
G01 X5.8738 Y51.7813
G00 Z2.0000
G00 X5.8738 Y54.5813
G01 F100.00
G01 Z-1.8000
G01 F120.00
G01 X5.8738 Y63.5000
G01 X5.8746 Y63.5271
G01 X5.8785 Y63.5662
G01 X5.8796 Y63.5736
G01 X5.8872 Y63.6121
G01 X5.8890 Y63.6193
G01 X5.9004 Y63.6569
G01 X5.9029 Y63.6639
G01 X5.9180 Y63.7002
G01 X5.9212 Y63.7070
G01 X5.9397 Y63.7416
G01 X5.9435 Y63.7480
G01 X5.9653 Y63.7806
G01 X5.9698 Y63.7866
G01 X5.9947 Y63.8170
G01 X5.9997 Y63.8225
G01 X6.0275 Y63.8503
G01 X6.0330 Y63.8553
G01 X6.0634 Y63.8802
G01 X6.0694 Y63.8847
G01 X6.1020 Y63.9065
G01 X6.1084 Y63.9103
G01 X6.1430 Y63.9288
G01 X6.1498 Y63.9320
G01 X6.1861 Y63.9471
G01 X6.1931 Y63.9496
G01 X6.2307 Y63.9610
G01 X6.2379 Y63.9628
G01 X6.2764 Y63.9704
G01 X6.2838 Y63.9715
G01 X6.3229 Y63.9754
G01 X6.3500 Y63.9762
G01 X15.0427 Y63.9762
G01 X18.7132 Y67.6468
G01 X18.7330 Y67.6653
G01 X18.7634 Y67.6902
G01 X18.7694 Y67.6947
G01 X18.8020 Y67.7165
G01 X18.8084 Y67.7203
G01 X18.8430 Y67.7388
G01 X18.8498 Y67.7420
G01 X18.8861 Y67.7571
G01 X18.8931 Y67.7596
G01 X18.9307 Y67.7710
G01 X18.9379 Y67.7728
G01 X18.9764 Y67.7804
G01 X18.9838 Y67.7815
G01 X19.0229 Y67.7854
G01 X19.0500 Y67.7862
G01 X23.3650 Y67.7862
G00 Z2.0000
G01 F120.00

M5
G00 Z15.0000
G00 X0.0000 Y0.0000
T9999
M6    
(MSG, Change to Tool Dia = 0.8000)
M0
G00 Z15.0000

M03
G01 F120.00
G00 X5.8738 Y17.4913
G01 F100.00
G01 Z-1.0000
G01 F120.00
G01 X5.8738 Y20.2913
G00 Z2.0000
G00 X23.3650 Y33.4962
G01 F100.00
G01 Z-1.0000
G01 F120.00
G01 X26.1650 Y33.4962
G00 Z2.0000
G00 X26.1650 Y38.5763
G01 F100.00
G01 Z-1.0000
G01 F120.00
G01 X23.3650 Y38.5763
G00 Z2.0000
G00 X5.8738 Y51.7813
G01 F100.00
G01 Z-1.0000
G01 F120.00
G01 X5.8738 Y54.5813
G00 Z2.0000
G00 X23.3650 Y67.7862
G01 F100.00
G01 Z-1.0000
G01 F120.00
G01 X26.1650 Y67.7862
G00 Z2.0000
G00 X43.6562 Y54.5813
G01 F100.00
G01 Z-1.0000
G01 F120.00
G01 X43.6562 Y51.7813
G00 Z2.0000
G00 X51.5938 Y51.7813
G01 F100.00
G01 Z-1.0000
G01 F120.00
G01 X51.5938 Y54.5813
G00 Z2.0000
G00 X69.0850 Y67.7862
G01 F100.00
G01 Z-1.0000
G01 F120.00
G01 X71.8850 Y67.7862
G00 Z2.0000
G00 X89.3762 Y54.5813
G01 F100.00
G01 Z-1.0000
G01 F120.00
G01 X89.3762 Y51.7813
G00 Z2.0000
G00 X71.8850 Y38.5763
G01 F100.00
G01 Z-1.0000
G01 F120.00
G01 X69.0850 Y38.5763
G00 Z2.0000
G00 X69.0850 Y33.4962
G01 F100.00
G01 Z-1.0000
G01 F120.00
G01 X71.8850 Y33.4962
G00 Z2.0000
G00 X89.3762 Y20.2913
G01 F100.00
G01 Z-1.0000
G01 F120.00
G01 X89.3762 Y17.4913
G00 Z2.0000
G00 X71.8850 Y4.2863
G01 F100.00
G01 Z-1.0000
G01 F120.00
G01 X69.0850 Y4.2863
G00 Z2.0000
G00 X51.5938 Y17.4913
G01 F100.00
G01 Z-1.0000
G01 F120.00
G01 X51.5938 Y20.2913
G00 Z2.0000
G00 X43.6562 Y20.2913
G01 F100.00
G01 Z-1.0000
G01 F120.00
G01 X43.6562 Y17.4913
G00 Z2.0000
G00 X26.1650 Y4.2863
G01 F100.00
G01 Z-1.0000
G01 F120.00
G01 X23.3650 Y4.2863
G00 Z2.0000
M05
G00 Z2.0000
G00 Z40.00
G00 X0.0 Y0.0


